packages/sources/assets/src/assets/kbc.svg

<svg width="58" height="40" viewBox="0 0 58 40" fill="none" xmlns="http://www.w3.org/2000/svg">
<rect x="0.5" y="0.5" width="57" height="39" rx="3.5" fill="white" stroke="#F3F3F3"/>
<path fill-rule="evenodd" clip-rule="evenodd" d="M35.4189 11.5172C35.4189 15.111 32.5165 18.0345 28.9486 18.0345C25.3808 18.0345 22.4784 15.111 22.4784 11.5172C22.4784 7.92345 25.3808 5 28.9486 5C32.5165 5 35.4189 7.92345 35.4189 11.5172ZM27.5252 19.4869C30.3166 19.4869 32.4796 18.1276 33.7182 16.7869C41.0573 16.3959 47.4721 16.4331 47.4721 16.4331V22.3731H10V19.4869C10 19.4869 15.2502 18.4441 22.312 17.6993C23.4951 18.649 25.3623 19.4869 27.5252 19.4869Z" fill="#00AEEF"/>
<path fill-rule="evenodd" clip-rule="evenodd" d="M43.8118 34.4394C45.0319 34.4394 46.4184 34.2345 47.4721 33.918V30.7338C46.5848 31.2552 45.6974 31.5904 44.4588 31.5904C42.8135 31.5904 41.1867 30.7711 41.1867 29.598C41.1867 28.4249 42.832 27.6056 44.4588 27.6056C45.7159 27.6056 46.6032 27.9407 47.4721 28.4807V25.278C46.289 24.8869 44.7731 24.7566 43.5899 24.7566C39.3196 24.7566 36.1769 26.1904 36.1769 29.5049C36.1769 33.1731 39.412 34.4394 43.8118 34.4394ZM14.4552 30.8083V34.309H10V24.98H14.4552V29.1697H14.4737L17.0988 24.98H22.4414L18.5223 29.8028L22.2196 34.309H17.1173L14.4737 30.8083H14.4552ZM23.1624 24.98H32.1653C34.4946 24.98 35.271 25.8925 35.271 27.3262C35.271 28.9276 33.8476 29.6166 32.4056 29.6911V29.7097C33.903 29.8214 35.345 29.989 35.345 31.8883C35.345 33.1173 34.587 34.3276 31.9989 34.3276H23.1624V24.98ZM27.6176 32.4097H29.9469C30.8158 32.4097 31.1116 32.0559 31.1116 31.5159C31.1116 30.9759 30.8158 30.6035 29.9469 30.6035H27.6176V32.4097ZM29.836 28.9276H27.6176V27.1214H29.9099C30.7049 27.1214 31.0376 27.4194 31.0376 28.0338C31.0376 28.5738 30.6864 28.9276 29.836 28.9276Z" fill="#003665"/>
</svg>

<svg width="58" height="40" fill="none" xmlns="http://www.w3.org/2000/svg"><rect x=".5" y=".5" width="57" height="39" rx="3.5" fill="#fff" stroke="#F3F3F3"/><path fill-rule="evenodd" clip-rule="evenodd" d="M35.419 11.517c0 3.594-2.902 6.518-6.47 6.518-3.568 0-6.47-2.924-6.47-6.518S25.38 5 28.948 5c3.567 0 6.47 2.923 6.47 6.517Zm-7.894 7.97c2.792 0 4.955-1.36 6.193-2.7 7.34-.391 13.754-.354 13.754-.354v5.94H10v-2.886s5.25-1.043 12.312-1.788c1.183.95 3.05 1.788 5.213 1.788Z" fill="#00AEEF"/><path fill-rule="evenodd" clip-rule="evenodd" d="M43.812 34.44c1.22 0 2.606-.206 3.66-.522v-3.184c-.887.521-1.775.856-3.013.856-1.646 0-3.272-.819-3.272-1.992s1.645-1.992 3.272-1.992c1.257 0 2.144.335 3.013.875v-3.203c-1.183-.391-2.699-.521-3.882-.521-4.27 0-7.413 1.433-7.413 4.748 0 3.668 3.235 4.934 7.635 4.934Zm-29.357-3.632v3.501H10V24.98h4.455v4.19h.019l2.625-4.19h5.342l-3.919 4.823 3.698 4.506h-5.103l-2.643-3.5h-.019Zm8.707-5.828h9.003c2.33 0 3.106.912 3.106 2.346 0 1.602-1.423 2.29-2.865 2.365v.019c1.497.111 2.939.279 2.939 2.178 0 1.23-.758 2.44-3.346 2.44h-8.837V24.98Zm4.456 7.43h2.329c.869 0 1.165-.354 1.165-.894s-.296-.912-1.165-.912h-2.33v1.806Zm2.218-3.482h-2.218V27.12h2.292c.795 0 1.128.298 1.128.913 0 .54-.352.894-1.202.894Z" fill="#003665"/></svg>
